X: 792
M: C
L: 1/8
K: Gmix
V: 1
(c |\
|: (e |\
g)dg^f gdd(e | f)cfe fcc(f |\
g)dg^f gdd(c | B)GAB G2G :|
V: 2 clef=bass middle=d
z |\
g2g2 g2g2 | f2f2 f2f2 |\
g2g2 g2g2 | d2d2 G2G :|\
|: z |
g2g2 g2g2 | f2f2 f2f2 |\
g2g2 g2g2 | d2d2 G2G :|

